site/static/img/page-produits/protege-slip.svg

<svg height="143" viewBox="0 0 143 143" width="143" xmlns="http://www.w3.org/2000/svg"><g fill="none" fill-rule="evenodd"><circle cx="71.5" cy="71.5" fill="#ffd8dd" r="71.5"/><g transform="matrix(-.12186934 .99254615 -.99254615 -.12186934 114.675086 27.959734)"><path d="m85.5472321 37.0776163c-7.53792-2.0135781-36.5898-17.5351042-36.5898-17.5351042s-10.64544-5.4411771-14.58912-10.47122915c-3.94212-5.03160938-10.22892-9.89191667-15.0462-8.95442709-4.81728.9359323-10.28975999 3.7188125-14.23187999 10.32172914-3.94368 6.6013594-3.79392 12.7308594-2.32752 17.405849 1.46484 4.6765469 8.73755999 7.886125 15.04619999 8.9544271 6.30708 1.0698593 16.16472 7.8316198 16.16472 7.8316198s27.49344 18.1315468 32.8536 23.792302c5.28996 5.5875625 19.1256 8.1788959 26.9256-4.2124739l.01404.0093437c.04992-.0840937.09048-.1681875.13884-.2522812.05304-.0840938.10608-.1588438.156-.2444948l-.01404-.0077865c7.2259199-12.766677-1.0608-24.6488125-8.50044-26.6374739" fill="#c5e2e0"/><path d="m83.7343561 38.4988007c-7.53636-2.0135782-36.5898-17.5351042-36.5898-17.5351042s-10.64544-5.4411771-14.58912-10.4727865c-3.94212-5.03005205-10.22736-9.89035934-15.04464-8.95442705-4.81728.93748958-10.28975999 3.72036979-14.23187999 10.32328645-3.94524 6.6013594-3.79548 12.7308594-2.32752 17.405849 1.46484 4.6765468 8.736 7.8845677 15.04463999 8.954427 6.30864 1.0698594 16.16472 7.8316198 16.16472 7.8316198s27.49344 18.1315469 32.85516 23.7923021c5.28996 5.5875625 19.1256 8.1788959 26.92404-4.2124739l.01404.0077864c.04992-.0825364.09204-.1681875.1404-.2507239.05148-.0840938.10452-.1588438.15444-.2444948l-.01404-.0077865c7.22748-12.7666771-1.05924-24.6488125-8.50044-26.6374739" fill="#fff"/><path d="m86.0422201 50.1945283-9.70164 16.2441093-66.63227999-39.654875 9.70163999-16.2441093z" fill="#e7364b"/></g></g></svg>

<?xml version="1.0" encoding="UTF-8"?>
<svg width="87px" height="107px" viewBox="0 0 87 107" version="1.1" xmlns="http://www.w3.org/2000/svg" xmlns:xlink="http://www.w3.org/1999/xlink">
    <title>Group 5</title>
    <g id="Page-1" stroke="none" stroke-width="1" fill="none" fill-rule="evenodd">
        <g id="QUELS-PRODUITS-DEPOSER" transform="translate(-824.000000, -750.000000)">
            <g id="Group-5" transform="translate(824.600000, 750.850000)">
                <g id="Group-11" transform="translate(43.037543, 52.941492) rotate(97.000000) translate(-43.037543, -52.941492) translate(-5.712457, 15.566492)">
                    <path d="M85.5472321,37.0776163 C78.0093121,35.0640382 48.9574321,19.5425121 48.9574321,19.5425121 C48.9574321,19.5425121 38.3119921,14.101335 34.3683121,9.07128295 C30.4261921,4.03967357 24.1393921,-0.82063372 19.3221121,0.116855863 C14.5048321,1.05278816 9.03235211,3.83566836 5.09023211,10.438585 C1.14655211,17.0399444 1.29631211,23.1694444 2.76271211,27.844434 C4.22755211,32.5209809 11.5002721,35.730559 17.8089121,36.7988611 C24.1159921,37.8687204 33.9736321,44.6304809 33.9736321,44.6304809 C33.9736321,44.6304809 61.4670721,62.7620277 66.8272321,68.4227829 C72.1171921,74.0103454 85.9528321,76.6016788 93.7528321,64.210309 L93.7668721,64.2196527 C93.8167921,64.135559 93.8573521,64.0514652 93.9057121,63.9673715 C93.9587521,63.8832777 94.0117921,63.8085277 94.0617121,63.7228767 L94.0476721,63.7150902 C101.273592,50.9484132 92.9868721,39.0662777 85.5472321,37.0776163" id="Fill-42" fill="#C5E2E0"></path>
                    <path d="M83.7343561,38.4988007 C76.1979961,36.4852225 47.1445561,20.9636965 47.1445561,20.9636965 C47.1445561,20.9636965 36.4991161,15.5225194 32.5554361,10.49091 C28.6133161,5.46085795 22.3280761,0.600550655 17.5107961,1.53648295 C12.6935161,2.47397253 7.22103611,5.25685274 3.27891611,11.8597694 C-0.666323886,18.4611288 -0.516563886,24.5906288 0.951396114,29.2656184 C2.41623611,33.9421652 9.68739611,37.1501861 15.9960361,38.2200454 C22.3046761,39.2899048 32.1607561,46.0516652 32.1607561,46.0516652 C32.1607561,46.0516652 59.6541961,64.1832121 65.0159161,69.8439673 C70.3058761,75.4315298 84.1415161,78.0228632 91.9399561,65.6314934 L91.9539961,65.6392798 C92.0039161,65.5567434 92.0460361,65.4710923 92.0943961,65.3885559 C92.1458761,65.3044621 92.1989161,65.2297121 92.2488361,65.1440611 L92.2347961,65.1362746 C99.4622761,52.3695975 91.1755561,40.4874621 83.7343561,38.4988007" id="Fill-44" fill="#FFFFFF"></path>
                    <polygon id="Fill-46" fill="#E7364B" points="86.0422201 50.1945283 76.3405801 66.4386376 9.70830011 26.7837626 19.4099401 10.5396533"></polygon>
                </g>
            </g>
        </g>
    </g>
</svg>
